src/xmb/monochrome/input_DPAD-U.svg

<?xml version="1.0" encoding="UTF-8" standalone="no"?>
<svg
   xmlns:dc="http://purl.org/dc/elements/1.1/"
   xmlns:cc="http://creativecommons.org/ns#"
   xmlns:rdf="http://www.w3.org/1999/02/22-rdf-syntax-ns#"
   xmlns:svg="http://www.w3.org/2000/svg"
   xmlns="http://www.w3.org/2000/svg"
   xml:space="preserve"
   height="64"
   width="64"
   version="1.1"
   id="svg4152"><metadata
     id="metadata4158"><rdf:RDF><cc:Work
         rdf:about=""><dc:format>image/svg+xml</dc:format><dc:type
           rdf:resource="http://purl.org/dc/dcmitype/StillImage" /><dc:title></dc:title></cc:Work></rdf:RDF></metadata><defs
     id="defs4156"><clipPath
       id="clipPath4166"
       clipPathUnits="userSpaceOnUse"><path
         id="path4168"
         d="M 0,64 64,64 64,0 0,0 0,64 z" /></clipPath></defs><g
     transform="matrix(1.25,0,0,-1.25,0,64)"
     id="g4160"><path
       id="path911"
       d="M 22.002372,40 C 21.339956,40 20.8,39.460027 20.8,38.797623 V 30.399995 H 12.402368 C 11.739952,30.399995 11.2,29.860031 11.2,29.197626 v -7.201584 c 0,-0.662404 0.539952,-1.196045 1.202368,-1.196045 H 20.8 V 12.396048 C 20.8,11.73364 21.339956,11.2 22.002372,11.2 h 7.195256 C 29.860044,11.2 30.4,11.73364 30.4,12.396048 v 8.403949 h 8.403956 c 0.66242,0 1.196044,0.533641 1.196044,1.196045 v 7.201584 c 4e-6,0.662405 -0.533624,1.202369 -1.196044,1.202369 H 30.4 v 8.397628 C 30.4,39.460027 29.860044,40 29.197628,40 Z"
       style="opacity:1;vector-effect:none;fill:none;fill-opacity:1;stroke:#ffffff;stroke-width:1.60000002;stroke-linecap:butt;stroke-linejoin:miter;stroke-miterlimit:4;stroke-dasharray:none;stroke-dashoffset:0;stroke-opacity:1" /><rect
       ry="0"
       transform="scale(1,-1)"
       y="-39.79546"
       x="20.799999"
       height="10.195458"
       width="9.6000004"
       id="rect927"
       style="opacity:1;vector-effect:none;fill:#ffffff;fill-opacity:1;stroke:none;stroke-width:1.60000002;stroke-linecap:butt;stroke-linejoin:miter;stroke-miterlimit:4;stroke-dasharray:none;stroke-dashoffset:0;stroke-opacity:1;paint-order:markers stroke fill" /></g></svg>

<svg xmlns="http://www.w3.org/2000/svg" xml:space="preserve" width="64" height="64"><g transform="matrix(1.25 0 0 -1.25 0 64)"><path d="M22.002 40c-.662 0-1.202-.54-1.202-1.202V30.4h-8.398c-.662 0-1.202-.54-1.202-1.202v-7.202a1.2 1.2 0 0 1 1.202-1.196H20.8v-8.404a1.2 1.2 0 0 1 1.202-1.196h7.196a1.2 1.2 0 0 1 1.202 1.196V20.8h8.404c.662 0 1.196.534 1.196 1.196v7.202a1.2 1.2 0 0 1-1.196 1.202H30.4v8.398c0 .662-.54 1.202-1.202 1.202Z" style="opacity:1;vector-effect:none;fill:none;fill-opacity:1;stroke:#fff;stroke-width:1.60000002;stroke-linecap:butt;stroke-linejoin:miter;stroke-miterlimit:4;stroke-dasharray:none;stroke-dashoffset:0;stroke-opacity:1"/><rect width="9.6" height="10.195" x="20.8" y="-39.795" ry="0" style="opacity:1;vector-effect:none;fill:#fff;fill-opacity:1;stroke:none;stroke-width:1.60000002;stroke-linecap:butt;stroke-linejoin:miter;stroke-miterlimit:4;stroke-dasharray:none;stroke-dashoffset:0;stroke-opacity:1;paint-order:markers stroke fill" transform="scale(1 -1)"/></g></svg>
